lib/brands/icons/ideal.svg

<svg xmlns="http://www.w3.org/2000/svg" fill="none" aria-hidden="true" viewBox="0 0 48 48"><g id="ideal-Icon"><g id="Ideal"><path id="Union" fill="black" fill-rule="evenodd" d="M5 7H24.581C37.8868 7 43 14.4855 43 23.9472C43 35.2653 35.8532 40.9543 24.581 40.9543H5V7ZM6.85911 9.03587V39.0378H24.5808C35.272 39.0378 41.0824 33.8878 41.0824 24.0069C41.0824 13.8266 34.8071 9.03587 24.5808 9.03587H6.85911ZM12.0888 24.5461C14.0463 24.5461 15.6331 22.9106 15.6331 20.8931C15.6331 18.8757 14.0463 17.2402 12.0888 17.2402C10.1313 17.2402 8.54444 18.8757 8.54444 20.8931C8.54444 22.9106 10.1313 24.5461 12.0888 24.5461ZM9.24174 26.1033H14.9359V36.5232H9.24174V26.1033Z" clip-rule="evenodd"/><path id="Shape" fill="#D50072" fill-rule="evenodd" d="M34.6334 17.5396H36.2603V22.5699H38.6425C38.0034 13.4076 30.9728 11.3716 24.5814 11.3716H17.7832V17.5396H18.771C20.6303 17.5396 21.7343 18.7972 21.7343 20.8932C21.7343 22.9891 20.6303 24.2467 18.8291 24.2467H17.7832V36.5229H24.5814C34.982 36.5229 38.5263 31.5525 38.7006 24.2467H34.6334V17.5396ZM26.7894 22.5697V24.2464H22.7221V17.5394H26.6731V19.2161H24.349V19.9946H26.5569V21.6714H24.4071V22.5697H26.7894ZM27.4865 24.2464L29.462 17.5394H31.7862L33.7617 24.2464H32.0767L31.7281 22.9888H29.5782L29.2296 24.2464H27.4865ZM30.0612 21.2523H30.0431V21.3121L30.0612 21.2523ZM30.0612 21.2523H31.2051L30.6822 19.3959H30.6241L30.0612 21.2523ZM17.7832 22.5698V19.2163H18.771C19.4101 19.2163 20.1074 19.3959 20.1074 20.893C20.1074 22.3901 19.4682 22.5698 18.771 22.5698H17.7832Z" clip-rule="evenodd"/></g></g></svg>

<svg xmlns="http://www.w3.org/2000/svg" fill="none" aria-hidden="true" viewBox="0 0 48 48"><path fill="#000" fill-rule="evenodd" d="M5 7h19.581C37.887 7 43 14.486 43 23.947c0 11.318-7.147 17.007-18.419 17.007H5V7Zm1.86 2.036v30.002h17.72c10.692 0 16.502-5.15 16.502-15.031 0-10.18-6.275-14.971-16.501-14.971H6.859Zm5.229 15.51c1.957 0 3.544-1.635 3.544-3.653 0-2.017-1.587-3.653-3.544-3.653-1.958 0-3.545 1.636-3.545 3.653 0 2.018 1.587 3.653 3.545 3.653Zm-2.847 1.557h5.694v10.42H9.242v-10.42Z" clip-rule="evenodd"/><path fill="#D50072" fill-rule="evenodd" d="M34.633 17.54h1.627v5.03h2.382c-.639-9.162-7.67-11.198-14.06-11.198h-6.799v6.168h.988c1.86 0 2.963 1.257 2.963 3.353s-1.104 3.354-2.905 3.354h-1.046v12.276h6.798c10.4 0 13.945-4.97 14.12-12.276h-4.068V17.54Zm-7.844 5.03v1.676h-4.067V17.54h3.95v1.677H24.35v.779h2.208v1.676h-2.15v.899h2.382Zm.697 1.676 1.976-6.707h2.324l1.975 6.707h-1.684l-.35-1.257h-2.149l-.349 1.257h-1.743Zm2.575-2.994h-.018v.06l.018-.06Zm0 0h1.144l-.523-1.856h-.058l-.563 1.856ZM17.783 22.57v-3.354h.988c.639 0 1.336.18 1.336 1.677s-.639 1.677-1.336 1.677h-.988Z" clip-rule="evenodd"/></svg>
